logo/hasura-icon.svg

<?xml version="1.0" encoding="UTF-8"?>
<svg width="256px" height="259px" viewBox="0 0 256 259" version="1.1" xmlns="http://www.w3.org/2000/svg" preserveAspectRatio="xMidYMid">
    <title>Hasura</title>
    <g>
        <path d="M233.499698,2.05686804 C235.107283,-0.413603419 238.707206,-0.733311491 240.641832,1.50465432 C255.17328,18.2989901 259.840841,63.3409266 252.716593,86.8400398 L252.368422,87.9425628 C249.83743,95.6444502 249.124085,103.782598 250.582734,111.688032 L251.174195,114.903131 L251.174195,114.903131 L251.744476,118.227781 C252.757653,124.384236 253.557433,130.769964 253.557433,135.608192 C253.557433,203.329074 197.340978,258.25971 127.970001,258.25971 C58.6288121,258.25971 2.38191763,203.357931 2.38191763,135.608192 C2.38191763,130.330125 3.33423854,123.210406 4.47703952,116.555767 L5.06078631,113.277883 C5.15954732,112.741588 5.25874934,112.211193 5.35795151,111.688032 C6.75842343,104.247624 6.23447558,96.6010741 4.05902207,89.3061119 L3.63183758,87.9425628 C-3.98676943,64.8071132 0.596300401,18.5945164 15.3573732,1.50465432 C17.1899115,-0.58798915 20.5183753,-0.437273545 22.2300433,1.68495513 L22.4998173,2.05686804 L40.6831848,29.929869 C45.2068258,35.481173 53.3015337,36.7890231 59.3728749,32.8943292 C79.1038805,20.2803864 102.673729,12.9560534 127.999789,12.9560534 C153.325848,12.9560534 176.895076,20.2803864 196.626082,32.8943292 C202.524739,36.6592 210.285126,35.5895472 214.855773,30.4735155 L215.317013,29.929869 L233.499698,2.05686804 Z M127.999789,40.9741435 C113.119774,40.9741435 99.0132999,44.2293405 86.4247383,50.1005481 C55.0276476,64.6327331 32.8267756,95.1213102 30.8921503,130.812431 C30.8027883,132.498208 30.7435239,134.183985 30.7435239,135.898929 C30.7435239,188.273129 74.3422511,230.882358 127.970001,230.882358 C181.598062,230.882358 225.225645,188.273129 225.256053,135.927785 C225.256053,134.242008 225.196789,132.527375 225.107117,130.841598 C223.172491,95.1793334 200.971619,64.6618999 169.575149,50.1294045 C156.95649,44.2293405 142.879803,40.9741435 127.999789,40.9741435 Z M121.540902,93.9580528 C122.400196,93.9580528 123.213879,94.3364886 123.742904,94.9956631 L123.951504,95.2950696 L145.259687,130.375861 L170.109149,172.46195 C170.615844,173.304993 170.615844,174.350963 170.109149,175.16484 C169.692669,175.902503 168.933863,176.395003 168.073232,176.506601 L167.698857,176.530713 L147.491875,176.530713 C146.632309,176.530713 145.818592,176.130422 145.289563,175.465576 L145.080963,175.16484 L131.808223,152.697433 L117.017261,175.251099 C116.574717,175.938263 115.835697,176.380502 115.019914,176.480324 L114.666233,176.501857 L94.1613776,176.501857 C93.1197518,176.501857 92.167488,175.948619 91.6912009,175.077029 C91.2747213,174.314117 91.2454672,173.396077 91.623394,172.613714 L91.8103503,172.28757 L119.160087,131.538497 L98.7743806,98.0851499 C98.2683063,97.2424166 98.2385189,96.1961365 98.7445933,95.3534032 C99.1871369,94.5902191 99.9487259,94.094292 100.810061,93.982235 L101.184672,93.9580528 L121.540902,93.9580528 Z" fill="#1EB4D4"></path>
    </g>
</svg>

<svg viewBox="0 0 256 259" xmlns="http://www.w3.org/2000/svg"><path fill="#1EB4D4" d="M233.49 2.05c1.6-2.48 5.2-2.8 7.14-.56 14.53 16.79 19.19 61.83 12.07 85.33l-.35 1.1c-2.54 7.7-3.25 15.84-1.79 23.74l.59 3.21v0l.57 3.32c1.01 6.15 1.81 12.54 1.81 17.38 0 67.72-56.22 122.65-125.59 122.65 -69.35 0-125.59-54.91-125.59-122.66 -.001-5.28.95-12.4 2.09-19.06l.58-3.28c.09-.54.19-1.07.29-1.59 1.4-7.45.87-15.09-1.3-22.39l-.43-1.37C-4.04 64.73.54 18.52 15.3 1.43c1.83-2.1 5.16-1.95 6.87.18l.26.37 18.18 27.87c4.52 5.55 12.61 6.85 18.68 2.96 19.73-12.62 43.3-19.94 68.62-19.94 25.32 0 48.89 7.32 68.62 19.93 5.89 3.76 13.65 2.69 18.22-2.43l.46-.55 18.18-27.88Zm-105.5 38.91c-14.89 0-28.99 3.25-41.58 9.12 -31.4 14.53-53.6 45.02-55.54 80.71 -.09 1.68-.15 3.37-.15 5.08 0 52.37 43.59 94.98 97.22 94.98 53.62 0 97.25-42.61 97.28-94.96 0-1.69-.06-3.41-.15-5.09 -1.94-35.67-24.14-66.18-55.54-80.72 -12.62-5.91-26.7-9.16-41.58-9.16Zm-6.46 52.98c.85 0 1.67.37 2.2 1.03l.2.29 21.3 35.08 24.84 42.08c.5.84.5 1.88 0 2.7 -.42.73-1.18 1.23-2.04 1.34l-.38.02h-20.21c-.86 0-1.68-.41-2.21-1.07l-.21-.31 -13.28-22.47 -14.8 22.55c-.45.68-1.19 1.12-2 1.22l-.36.02H94.07c-1.05 0-2-.56-2.48-1.43 -.42-.77-.45-1.69-.07-2.47l.18-.33 27.34-40.75 -20.39-33.46c-.51-.85-.54-1.89-.03-2.74 .44-.77 1.2-1.26 2.06-1.38l.37-.03h20.35Z"/></svg>
